X: 23844
T: Liverpool, The
R: hornpipe
M: 4/4
K: Dmajor
|:AG|FDFA d2 ef|gfed dcBA|G2 BG F2 AF|EFGA GFED|
FDFA d2 ef|gfed dcBA|fefg afdf|gedA d2:|
|:A|d2 fd c2 ec|BcdB BAGF|G2 BG F2 AF|EFGA GFED|
FDFA d2 ef|gfed dcBA|fefg afdf|gedA d2:|

